X: 41143
T: Trip We Took Over The Mountain, The
R: waltz
M: 3/4
K: Gmajor
D>D|:D2 G2 A2|B3 A G2|A2 F2 F2|f3 g a>f|g2 d2 d2|d3 c A>F|
G3 A G>F|D4 D>D|D2 G2 A2|B3 A G2|A2 F2 F2|f3 g a>f|g2 d2 d2|
d3 c A>F|G6|G4:|
d>d|:d2 g2 g2|g2 a2 g2|f2 d2 e2|_f4 =f2|g2 d2 d2|d3 c A>F|G3 A G>F|
D4 D>D|D2 G2 A2|B2 A2 G2|A2 F2 A2|f4 g>a|g2 d2 d2|d3 c A>F|G6|

